src/Pure/16/symbolic/actions/xapp-search-wrap-symbolic.svg

<svg width="16" height="16" version="1.1" xmlns="http://www.w3.org/2000/svg">
 <path d="m4 1c-0.554 0-1 0.446-1 1v12c0 0.554 0.446 1 1 1h8c0.554 0 1-0.446 1-1v-4h-1v4h-8v-12h8v4h1v-4c0-0.554-0.446-1-1-1h-8z" fill="#363636" stroke-linecap="round" stroke-width="2"/>
 <path d="m10 5h5l-2.4986 3z" fill="#363636" stroke-linecap="round" stroke-width="2"/>
</svg>

<?xml version="1.0" encoding="UTF-8" standalone="no"?>
<svg
   width="16"
   height="16"
   version="1.1"
   id="svg2"
   sodipodi:docname="xapp-search-wrap-symbolic.svg"
   inkscape:version="1.4.2 (ebf0e940d0, 2025-05-08)"
   xmlns:inkscape="http://www.inkscape.org/namespaces/inkscape"
   xmlns:sodipodi="http://sodipodi.sourceforge.net/DTD/sodipodi-0.dtd"
   xmlns="http://www.w3.org/2000/svg"
   xmlns:svg="http://www.w3.org/2000/svg">
  <defs
     id="defs2">
     <style
        id="current-color-scheme"
        type="text/css">
        .ColorScheme-Text { color:#363636; }
     </style>
  </defs>
  <sodipodi:namedview
     id="namedview2"
     pagecolor="#ffffff"
     bordercolor="#000000"
     borderopacity="0.25"
     inkscape:showpageshadow="2"
     inkscape:pageopacity="0.0"
     inkscape:pagecheckerboard="0"
     inkscape:deskcolor="#d1d1d1"
     inkscape:zoom="49.6875"
     inkscape:cx="8"
     inkscape:cy="8"
     inkscape:window-width="1920"
     inkscape:window-height="1010"
     inkscape:window-x="0"
     inkscape:window-y="0"
     inkscape:window-maximized="1"
     inkscape:current-layer="svg2" />
  <path
     id="path1"
     style="fill:currentColor;fill-opacity:1"
     class="ColorScheme-Text"
     d="M 4 1 C 3.446 1 3 1.446 3 2 L 3 14 C 3 14.554 3.446 15 4 15 L 12 15 C 12.554 15 13 14.554 13 14 L 13 10 L 12 10 L 12 14 L 4 14 L 4 2 L 12 2 L 12 5 L 10 5 L 12.501953 8 L 15 5 L 13 5 L 13 2 C 13 1.446 12.554 1 12 1 L 4 1 z " />
</svg>
